!!!COM:      Bach, Johann Sebastian
!!!CDT:      1685/03/31/-1750/07/28/
!!!OPR@@GER: Das wohltemperirte Clavier
!!!OVM@@GER: Band II
!!!OPR@ENG:  Well-Tempered Clavier
!!!OVM@ENG:  Book II
!!!OTL:      Fugue
!!!OKY:      A major
!!!ONM:      no. 19
!!!SCT:      BWV 888
!!!OMV:      2
**kern	**kern	**kern
*	*	*M4/4
*clefF4	*clefG2	*
*k[f#c#g#]	*k[f#c#g#]	*
*A:	*A:	*
*M4/4	*M4/4	*
*met(c)	*met(c)	*
*MM64	*MM64	*MM64
=1-	=1-	=1-
8r	1r	1ryy
16A	.	.
16B	.	.
16c#	.	.
16B	.	.
16A	.	.
16c#	.	.
16B	.	.
16d	.	.
[8c#	.	.
16c#]	.	.
16e	.	.
[8d	.	.
=2	=2	=2
16d]	2r	1ryy
16f#	.	.
16e	.	.
16d	.	.
16e	.	.
16B	.	.
16c#	.	.
16d	.	.
8c#	8r	.
8A	16e	.
.	16f#	.
8B	16g#	.
.	16f#	.
8c#	16e	.
.	16g#	.
=3	=3	=3
8d	16f#	1ryy
.	16a	.
16B	[8g#	.
16e	.	.
8c#	16g#]	.
.	16b	.
16f#	[8a	.
16c#	.	.
8d#	16a]	.
.	16cc#	.
4e	16b	.
.	16a	.
.	16b	.
.	16f#	.
8d#	16g#	.
.	16a	.
=4	=4	=4
8.e	16g#	1ryy
.	16b	.
.	16a	.
16B	16g#	.
8c#	16a	.
.	16e	.
8A	16f#	.
.	16gn	.
8.d	16f#	.
.	16a	.
.	16g#	.
16A	16f#	.
8B	16g#	.
.	16d#	.
8G#	16e	.
.	16f#	.
=5	=5	=5
*	*	*staff:12
*	*	*clefG2
*	*	*k[f#c#g#]
16c#	4.e	8r
16d	.	.
16c#	.	16a
16B	.	16b
8.A	.	16cc#
.	.	16b
.	8f#	16a
16A	.	16cc#
8.e	8.g#	16b
.	.	16dd
.	.	[8cc#
16E	16g#	.
8.F#	8.a	16cc#]
.	.	16ee
.	.	[8dd
16f#	16a	.
=6	=6	=6
4g#	4b	16dd]
.	.	16ff#
.	.	16ee
.	.	16dd
8r	8r	16ee
.	.	16b
8e	8g#	16cc#
.	.	16dd
8A	8a	16cc#
.	.	16dd
8B	8g#	16ee
.	.	16ff#
8c#	8a	16ee
.	.	16aa
8d#	8b	16gg#
.	.	16ff#
=7	=7	=7
8e	[4b	16gg#
.	.	16ff#
16E	.	16ee
16F#	.	16dd#
16G#	16b]	[4ee
16F#	16a	.
16E	16g#	.
16G#	16b	.
16F#	16a	8.ee]
16A	16f#	.
[8G#	[8b	.
.	.	16dd#X
16G#]	16b]	8.ee
16B	16g#	.
[8A	[8cc#	.
.	.	16dd#
=8	=8	=8
16A]	8cc#]	8.ee
16c#	.	.
16B	[8f#	.
16A	.	16cc#
16B	8.f#]	[4ddn
16F#	.	.
16G#	.	.
16A	16f#	.
16G#	[4e	8.dd]
16B	.	.
16A	.	.
16G#	.	16b#
16A	8.e]	[4cc#
16E	.	.
16F#	.	.
16G#	16e	.
=9	=9	=9
16F#	[4d#	8.cc#]
16A	.	.
16G#	.	.
16F#	.	16a#
16G#	8.d#]	[4bn
16D#	.	.
16E#	.	.
16F#	16dn	.
16E#X	4.c#	16b]
16C#	.	16e#
16D#X	.	16f#
16E#	.	16g#
8.F#	.	16an
.	.	16g#
.	8d#	16f#
16F#	.	16a
=10	=10	=10
8.c#	8.e#	16g#
.	.	16b
.	.	[8a
16C#	16e#	.
8.D	8.f#	16a]
.	.	16cc#
.	.	[8b
16D#	16f#	.
8.En	4g#	16b]
.	.	16dd
.	.	16cc#
16G#	.	16b
8E#	4r	16cc#
.	.	16g#
8C#	.	16a
.	.	16b
=11	=11	=11
8.F#	16r	[2a
.	16g#	.
.	16f#	.
16G#	16e#	.
8A	16f#	.
.	16c#	.
8F#	16d#	.
.	16en	.
8.BB	[2d#X	16a]
.	.	16cc#
.	.	16b
16C#	.	16a
8D#	.	16b
.	.	16f#
8BB	.	16g#
.	.	16a
=12	=12	=12
8.E	16d#]	[2g#
.	16G#	.
.	16c#	.
16D#	16d#	.
8.C#	16e	.
.	16d#	.
.	16c#	.
16c#	16e	.
16B#	16d#	8.g#]
16G#	16f#	.
16c#	[8e	.
16Bn	.	16g#
16A	16e]	8.cc#
16G#	16g#	.
16A	[8f#	.
16F#	.	16dd#X
=13	=13	=13
8.G#	16f#]	8b#
.	16a	.
.	16g#	8r
16D#	16f#	.
8BB#	16g#	[4dd#
.	16d#X	.
8GG#	16e	.
.	16f#	.
[2C#	8.e	16dd#]
.	.	16b#
.	.	16cc#
.	16G#	16dd#
.	8A#	16cc#
.	.	16ff#
.	8B#X	16ee
.	.	16dd#
=14	=14	=14
*	*clefF4	*
8C#]	16c#	[2ee
.	16d#	.
8r	16c#	.
.	16B#	.
4r	16c#	.
.	16G#	.
.	16A#	.
.	16Bn	.
8r	8A#	16ee]
.	.	16ggn
16r	8r	16ff#
16c#	.	16ee
8A#X	4r	16ff#
.	.	16cc#
8F#	.	16ddn
.	.	16ee
=15	=15	=15
*	*staff:6	*
*	*clefG2	*
8.B	16r	[2dd
.	16cc#	.
.	16b	.
16F#	16a#	.
8D	16b	.
.	16f#	.
8BB	16g#	.
.	16an	.
8.E	2g#	16dd]
.	.	16ff#
.	.	16ee
16BB	.	16dd
8GG#	.	16ee
.	.	16b
8EE	.	16cc#
.	.	16dd
=16	=16	=16
16AAA	8a	16cc#
16EE	.	16dd
16AA	8r	16cc#
16BB	.	16b
16C#	4r	16a
16BB	.	16g#
16AA	.	16f#
16C#	.	16e
16BB	2r	16d
16D	.	16f#
[8C#	.	16g#
.	.	16b
16C#]	.	16e
16E	.	16g#
[8D	.	16a#
.	.	16cc#
=17	=17	=17
16D]	8r	[4b
16F#	.	.
16E	16r	.
16D#	16f#	.
16E	[4gn	8.b]
16BB	.	.
16C#	.	.
16Dn	.	16b
16C#	8.g]	[4a
16E	.	.
16D	.	.
16C#	16e#	.
16D	[4f#	8.a]
16AA	.	.
16BB	.	.
16C#	.	16a
=18	=18	=18
16BB	8.f#]	[4g#X
16D	.	.
16C#	.	.
16BB	16d#	.
16C#	[4en	8.g#]
16GG#	.	.
16AA#	.	.
16BB	.	16gn
16AA#X	8e]	4f#
16FF#	.	.
16GG#	16dn	.
16AA#	16c#	.
16GG#	16B	4r
16C#	16A#	.
16BB	16G#	.
16AA#	16F#	.
=19	=19	=19
16BB	16d	4f#
16C#	16c#	.
16D	16B	.
16E	16A#	.
16D	16B	4r
16Gn	16e	.
16F#	16d	.
16E	16c#	.
16F#	16d	2r
16G#	16dd	.
16A	16cc#	.
16B	16b	.
16A	16cc#	.
16d	16g#	.
16c#	16an	.
16B	16b	.
=20	=20	=20
16c#	4.a	16r
16A	.	16cc#
16B	.	16dd
16c#	.	16ee
8.d	.	16ff#
.	.	16ee
.	8b	16dd
16D	.	16ff#
8.A	8.cc#	16ee
.	.	16ggn
.	.	[8ff#
16A#	16cc#	.
8.B	8.dd	16ff#]
.	.	16aa
.	.	[8ggn
16BB	16dd#	.
=21	=21	=21
8.Cn	[2ee	16gg]
.	.	16bb
.	.	16aa
16cn	.	16gg#X
8.c#	.	16aa
.	.	16ee
.	.	16ff#
16A	.	16ggn
16d	16ee]	[2ff#
16c#	16ee	.
16B	16dd	.
16A	16cc#	.
16B	16dd	.
16F#	16a	.
16G#X	16b	.
16A	16cc#	.
=22	=22	=22
16G#	[2b	16ff#]
16A	.	16ff#
16G#	.	16ee
16F#	.	16dd#
16G#	.	16ee
16B	.	16b
16A	.	16cc#
16G#	.	16ddn
16A	16b]	[2cc#
16G#	16b	.
16F#	16a	.
16E	16g#	.
16F#	16a	.
16C#	16e	.
16D#	16f#	.
16E	16gn	.
=23	=23	=23
16D#	[2f#	16cc#]
16E	.	16ccn
16D#	.	16b
16C#	.	16a#
16D#	.	16b
16F#	.	16f#
16E	.	16g#X
16D#	.	16an
8.E	16f#]	8.g#
.	16B	.
.	16e	.
16EE	16f#	16a
8.E	16g#	8.b
.	16f#	.
.	16e	.
16AA#	16gn	16cc#
=24	=24	=24
8.BB	16f#	8.dd
.	16a	.
.	[8g#X	.
16B	.	16dd#
8.c#	16g#]	8.ee
.	16b	.
.	[8a	.
16C#	.	16ee#
8.D	16a]	[2ff#
.	16cc#	.
.	16b	.
16d	16a	.
8.d#	16b	.
.	16f#	.
.	16g#	.
16D#X	16a	.
=25	=25	=25
8E	16g#	16ff#]
.	16a	16dd#
8r	16g#	16ee
.	16f#	16ff#
4r	16g#	16ee
.	16d#X	16aa
.	16e	16gg#
.	16f#	16ff#
16r	8e	16gg#
16F#	.	16ff#
16G#	8r	16ee
16A	.	16dd#X
16G#	4r	16ee
16B	.	16b
16A	.	16cc#
16G#	.	16ddn
=26	=26	=26
*	*clefF4	*
4A	16r	16cc#
.	16d	16g#
.	16c#	16a
.	16B	16b
4r	16c#	16a
.	16G#	16dd
.	16A	16cc#
.	16B	16b
16r	8A	16cc#
16BB	.	16b
16C#	8r	16a
16D	.	16g#
16C#	4r	16a
16E	.	16e
16D	.	16f#
16C#	.	16gn
=27	=27	=27
*	*staff:2	*
*	*clefG2	*
16D	4r	16f#
16C#	.	16a
16BB	.	16b
16AA	.	16cc#
16BB	16r	[4dd
16FF#	16a	.
16GG#	16g#	.
16AA	16f#	.
16GG#	[4e	16dd]
16EE	.	16g#
16FF#	.	16a
16GG#	.	16b
16AA	8.e]	16cc#
16BB	.	16b
16C#	.	16a
16AA	16f#	16cc#
=28	=28	=28
8.E	8.g#	16b
.	.	16dd
.	.	[8cc#
16EE	16g#	.
8.FF#	8.a	16cc#]
.	.	16ee
.	.	[8dd
16F#	16a	.
16G#	4b	16dd]
16A	.	16ff#
16G#	.	16ee
16F#	.	16dd#
16E	4r	16ee
16D	.	16b
16C#	.	16cc#
16BB	.	16ddn
=29	=29	=29
8AA	16r	8.cc#
.	16a	.
8D	16g#	.
.	16f#	16b
4E	16e	8.g#w
.	16d	.
.	16c#	.
.	16B	16a
2AA	2c#;y	2a;
==	==	==
*-	*-	*-
!!!AFR:  fugue
!!!EFL:  86/96
!!!END:  1994/02/15/
!!!VID:  1082767005 Bach, BWV 888-02
!!!AST:  Baroque
!!!OCY:  Deutschland
!!!ODT:  1742///
!!!PDT:  1801///
!!!EED:  Walter Hewlett
!!!ENC:  Walter Hewlett
!!!YOR:  Bach Gesellschaft Edition xiv
!!!AFT:  enhanced SCORE
!!!RDT:  2011/10/07/ by Andreas Kornstaedt using massScr2hmd
!!!SCA1: Thematisch-systematisches Verzeichnis der musikalischen Werke 
!!!SCA2: Johann Sebastian Bach: Bach-Werke-Verzeichnis (Schmieder)
!!!YEC1: Copyright 1994, 2000 Center for Computer Assisted Research 
!!!YEC2: in the Humanities
!!!YEM1: Rights to all derivative editions reserved.
!!!YEM2: Refer to licensing agreement for further details.
!!!YEN:  United States of America
!!!ref:  @{OTL}, @{SCT}
!!muse2ps: T^@{OTL} @{ONM} in @{OKY}^C^J.S. Bach\n@{SCT}-@{OMV}^
!!muse2ps: u^@{OPR@ENG}, @{OVM@ENG}^j
